X:1
T:Devil's Dream
M:4/4
L:1/8
K:C
 z6 G2| cB cG cB cG| cB cG AG FE| FA DA FA DA| FA DA cB AG| FE FG AG AB|\
 cG EG C2 z G| EG CG EG CG|
